X:304
T:Star of the Lothians, The
C:Nigel Gatherer
Z:Nigel Gatherer <gatherer@argonet.co.uk>
R:Reel
M:4/4
L:1/8
K:Bm
F2|BFdB cA F2|Bcde fa/f/ ec|BFdB cA F2|BdcA fecd|BFdB cA F2|
Bcde fa/f/ ec|defd cdeg|fdec B2::Bc|d2 fd afed|(3cBA eA fAec|
d2 fd afed|Bdcd B2 Bc|d2 fd afed|(3cBA eA fA e2|faaf eaac|dfec B2:|
